resources/material/case-sensitive.svg

<svg xmlns="http://www.w3.org/2000/svg" width="16" height="16" viewBox="0 0 16 16" fill="context-fill"
    fill-opacity="context-fill-opacity">
    <path
        d="M8.85352 11.7021H7.85449L7.03809 9.54297H3.77246L3.00439 11.7021H2L4.9541 4H5.88867L8.85352 11.7021ZM6.74268 8.73193L5.53418 5.4502C5.49479 5.34277 5.4554 5.1709 5.41602 4.93457H5.39453C5.35872 5.15299 5.31755 5.32487 5.271 5.4502L4.07324 8.73193H6.74268Z" />
    <path
        d="M13.756 11.7021H12.8752V10.8428H12.8537C12.4706 11.5016 11.9066 11.8311 11.1618 11.8311C10.6139 11.8311 10.1843 11.686 9.87273 11.396C9.56479 11.106 9.41082 10.721 9.41082 10.2412C9.41082 9.21354 10.016 8.61556 11.2262 8.44727L12.8752 8.21631C12.8752 7.28174 12.4974 6.81445 11.7419 6.81445C11.0794 6.81445 10.4815 7.04004 9.94793 7.49121V6.58887C10.4886 6.24512 11.1117 6.07324 11.8171 6.07324C13.1097 6.07324 13.756 6.75716 13.756 8.125V11.7021ZM12.8752 8.91992L11.5485 9.10254C11.1403 9.15983 10.8324 9.26188 10.6247 9.40869C10.417 9.55192 10.3132 9.80794 10.3132 10.1768C10.3132 10.4453 10.4081 10.6655 10.5978 10.8374C10.7912 11.0057 11.0472 11.0898 11.3659 11.0898C11.8027 11.0898 12.1626 10.9377 12.4455 10.6333C12.7319 10.3254 12.8752 9.93685 12.8752 9.46777V8.91992Z" />
</svg>

<svg width="16" height="16" fill="#f4f4f7" fill-opacity="context-fill-opacity">
  <path d="M8.854 11.702h-1l-.816-2.159H3.772l-.768 2.16H2L4.954 4h.935l2.965 7.702Zm-2.111-2.97L5.534 5.45a3.142 3.142 0 0 1-.118-.515h-.021c-.036.218-.077.39-.124.515L4.073 8.732h2.67Zm7.013 2.97h-.88v-.86h-.022c-.383.66-.947.99-1.692.99-.548 0-.978-.146-1.29-.436-.307-.29-.461-.675-.461-1.155 0-1.027.605-1.625 1.815-1.794l1.65-.23c0-.935-.379-1.403-1.134-1.403-.663 0-1.26.226-1.794.677V6.59c.54-.344 1.164-.516 1.87-.516 1.292 0 1.938.684 1.938 2.052v3.577Zm-.88-2.782-1.327.183c-.409.057-.717.159-.924.306-.208.143-.312.399-.312.768 0 .268.095.489.285.66.193.169.45.253.768.253a1.41 1.41 0 0 0 1.08-.457c.286-.308.43-.696.43-1.165V8.92Z"/>
</svg>
